X:187
T:Prince of Brunswick THO4.187, The
M:6/8
L:1/8
Z:vmp. Peter Dunk 2010/11.from a transcription by Fynn Titford-Mock 2007
B:Thompson's Compleat Collection of 200 Favourite Country Dances Volume IV.
Q:3/8=100
K:G
(gdB) (GAG)|(cBA) (BGD)|(gdB) (AG)B|\
(cB)A B3::(def) (gbg)|(faf) (e^cA)|
(def) (gbg)|(faf) g3::gdB ecA|\
(BcA) B2 G|(gdB) (ecA)| BdD G3 :|
